solution/ui/src/images/fixed_costs.svg

<svg width="120" height="53" viewBox="0 0 120 53" fill="none" xmlns="http://www.w3.org/2000/svg">
<rect x="0.5" y="0.5" width="119" height="52" rx="7.5" stroke="#C5C5C5"/>
<path d="M22.62 22V10.192H29.424V11.452H24.114V15.448H28.614V16.708H24.114V22H22.62ZM30.9705 22V13.252H32.4465V22H30.9705ZM31.7265 11.452C31.4385 11.452 31.1925 11.362 30.9885 11.182C30.7965 11.002 30.7005 10.774 30.7005 10.498C30.7005 10.21 30.7965 9.982 30.9885 9.814C31.1925 9.634 31.4385 9.544 31.7265 9.544C32.0145 9.544 32.2545 9.634 32.4465 9.814C32.6505 9.982 32.7525 10.21 32.7525 10.498C32.7525 10.774 32.6505 11.002 32.4465 11.182C32.2545 11.362 32.0145 11.452 31.7265 11.452ZM33.7762 22L36.6382 17.428L33.9922 13.252H35.5942L36.7642 15.178C36.8962 15.418 37.0342 15.664 37.1782 15.916C37.3222 16.156 37.4722 16.396 37.6282 16.636H37.7002C37.8322 16.396 37.9642 16.156 38.0962 15.916C38.2282 15.664 38.3602 15.418 38.4922 15.178L39.5542 13.252H41.1022L38.4562 17.59L41.3002 22H39.6982L38.4202 19.966C38.2642 19.702 38.1082 19.438 37.9522 19.174C37.7962 18.91 37.6342 18.652 37.4662 18.4H37.3942C37.2382 18.652 37.0882 18.91 36.9442 19.174C36.8002 19.426 36.6562 19.69 36.5122 19.966L35.3242 22H33.7762ZM45.8806 22.216C45.2926 22.216 44.7406 22.114 44.2246 21.91C43.7206 21.694 43.2766 21.394 42.8926 21.01C42.5206 20.614 42.2266 20.134 42.0106 19.57C41.7946 19.006 41.6866 18.364 41.6866 17.644C41.6866 16.924 41.7946 16.282 42.0106 15.718C42.2386 15.142 42.5326 14.656 42.8926 14.26C43.2646 13.864 43.6846 13.564 44.1526 13.36C44.6206 13.144 45.1066 13.036 45.6106 13.036C46.1626 13.036 46.6546 13.132 47.0866 13.324C47.5306 13.516 47.8966 13.792 48.1846 14.152C48.4846 14.512 48.7126 14.944 48.8686 15.448C49.0246 15.952 49.1026 16.516 49.1026 17.14C49.1026 17.296 49.0966 17.452 49.0846 17.608C49.0846 17.752 49.0726 17.878 49.0486 17.986H43.1446C43.2046 18.922 43.4926 19.666 44.0086 20.218C44.5366 20.758 45.2206 21.028 46.0606 21.028C46.4806 21.028 46.8646 20.968 47.2126 20.848C47.5726 20.716 47.9146 20.548 48.2386 20.344L48.7606 21.316C48.3766 21.556 47.9506 21.766 47.4826 21.946C47.0146 22.126 46.4806 22.216 45.8806 22.216ZM43.1266 16.924H47.8066C47.8066 16.036 47.6146 15.364 47.2306 14.908C46.8586 14.44 46.3306 14.206 45.6466 14.206C45.3346 14.206 45.0346 14.266 44.7466 14.386C44.4706 14.506 44.2186 14.686 43.9906 14.926C43.7626 15.154 43.5706 15.436 43.4146 15.772C43.2706 16.108 43.1746 16.492 43.1266 16.924ZM53.8523 22.216C52.7483 22.216 51.8663 21.82 51.2063 21.028C50.5583 20.236 50.2343 19.108 50.2343 17.644C50.2343 16.936 50.3363 16.3 50.5403 15.736C50.7563 15.16 51.0383 14.674 51.3863 14.278C51.7343 13.882 52.1363 13.576 52.5923 13.36C53.0483 13.144 53.5283 13.036 54.0323 13.036C54.5363 13.036 54.9743 13.126 55.3463 13.306C55.7183 13.486 56.0963 13.732 56.4803 14.044L56.4083 12.55V9.184H57.9023V22H56.6783L56.5523 20.974H56.4983C56.1503 21.31 55.7483 21.604 55.2923 21.856C54.8483 22.096 54.3683 22.216 53.8523 22.216ZM54.1763 20.974C54.5843 20.974 54.9683 20.878 55.3283 20.686C55.6883 20.482 56.0483 20.176 56.4083 19.768V15.196C56.0363 14.86 55.6763 14.626 55.3283 14.494C54.9923 14.35 54.6443 14.278 54.2843 14.278C53.9363 14.278 53.6063 14.362 53.2943 14.53C52.9943 14.686 52.7303 14.914 52.5023 15.214C52.2743 15.502 52.0943 15.85 51.9623 16.258C51.8303 16.666 51.7643 17.122 51.7643 17.626C51.7643 18.682 51.9743 19.504 52.3943 20.092C52.8143 20.68 53.4083 20.974 54.1763 20.974ZM68.2602 22.216C67.5162 22.216 66.8322 22.078 66.2082 21.802C65.5842 21.526 65.0382 21.13 64.5702 20.614C64.1142 20.086 63.7542 19.444 63.4902 18.688C63.2382 17.92 63.1122 17.056 63.1122 16.096C63.1122 15.148 63.2442 14.296 63.5082 13.54C63.7722 12.784 64.1382 12.142 64.6062 11.614C65.0742 11.086 65.6262 10.684 66.2622 10.408C66.8982 10.12 67.5942 9.976 68.3502 9.976C69.0702 9.976 69.7002 10.126 70.2402 10.426C70.7922 10.714 71.2422 11.05 71.5902 11.434L70.7802 12.406C70.4682 12.07 70.1142 11.8 69.7182 11.596C69.3222 11.392 68.8722 11.29 68.3682 11.29C67.8042 11.29 67.2942 11.404 66.8382 11.632C66.3822 11.848 65.9922 12.166 65.6682 12.586C65.3442 12.994 65.0922 13.492 64.9122 14.08C64.7442 14.668 64.6602 15.328 64.6602 16.06C64.6602 16.804 64.7442 17.476 64.9122 18.076C65.0922 18.664 65.3382 19.168 65.6502 19.588C65.9622 20.008 66.3402 20.332 66.7842 20.56C67.2402 20.788 67.7502 20.902 68.3142 20.902C68.8902 20.902 69.3942 20.788 69.8262 20.56C70.2582 20.32 70.6662 19.99 71.0502 19.57L71.8782 20.506C71.4102 21.046 70.8822 21.466 70.2942 21.766C69.7062 22.066 69.0282 22.216 68.2602 22.216ZM76.9374 22.216C76.3974 22.216 75.8814 22.114 75.3894 21.91C74.9094 21.706 74.4834 21.412 74.1114 21.028C73.7394 20.632 73.4394 20.152 73.2114 19.588C72.9954 19.012 72.8874 18.364 72.8874 17.644C72.8874 16.912 72.9954 16.264 73.2114 15.7C73.4394 15.124 73.7394 14.638 74.1114 14.242C74.4834 13.846 74.9094 13.546 75.3894 13.342C75.8814 13.138 76.3974 13.036 76.9374 13.036C77.4774 13.036 77.9874 13.138 78.4674 13.342C78.9594 13.546 79.3914 13.846 79.7634 14.242C80.1354 14.638 80.4294 15.124 80.6454 15.7C80.8734 16.264 80.9874 16.912 80.9874 17.644C80.9874 18.364 80.8734 19.012 80.6454 19.588C80.4294 20.152 80.1354 20.632 79.7634 21.028C79.3914 21.412 78.9594 21.706 78.4674 21.91C77.9874 22.114 77.4774 22.216 76.9374 22.216ZM76.9374 20.992C77.3094 20.992 77.6514 20.914 77.9634 20.758C78.2754 20.59 78.5394 20.362 78.7554 20.074C78.9834 19.774 79.1574 19.42 79.2774 19.012C79.3974 18.604 79.4574 18.148 79.4574 17.644C79.4574 17.14 79.3974 16.684 79.2774 16.276C79.1574 15.856 78.9834 15.496 78.7554 15.196C78.5394 14.896 78.2754 14.668 77.9634 14.512C77.6514 14.344 77.3094 14.26 76.9374 14.26C76.5654 14.26 76.2234 14.344 75.9114 14.512C75.5994 14.668 75.3294 14.896 75.1014 15.196C74.8854 15.496 74.7174 15.856 74.5974 16.276C74.4774 16.684 74.4174 17.14 74.4174 17.644C74.4174 18.148 74.4774 18.604 74.5974 19.012C74.7174 19.42 74.8854 19.774 75.1014 20.074C75.3294 20.362 75.5994 20.59 75.9114 20.758C76.2234 20.914 76.5654 20.992 76.9374 20.992ZM85.1772 22.216C84.5532 22.216 83.9592 22.102 83.3952 21.874C82.8312 21.646 82.3392 21.358 81.9192 21.01L82.6572 20.02C83.0412 20.332 83.4312 20.584 83.8272 20.776C84.2352 20.968 84.7032 21.064 85.2312 21.064C85.8072 21.064 86.2392 20.932 86.5272 20.668C86.8152 20.404 86.9592 20.08 86.9592 19.696C86.9592 19.468 86.8992 19.27 86.7792 19.102C86.6592 18.934 86.5032 18.79 86.3112 18.67C86.1312 18.538 85.9212 18.424 85.6812 18.328C85.4412 18.232 85.2012 18.136 84.9612 18.04C84.6492 17.932 84.3372 17.812 84.0252 17.68C83.7132 17.536 83.4312 17.368 83.1792 17.176C82.9392 16.972 82.7412 16.738 82.5852 16.474C82.4292 16.21 82.3512 15.892 82.3512 15.52C82.3512 15.172 82.4172 14.848 82.5492 14.548C82.6932 14.236 82.8912 13.972 83.1432 13.756C83.4072 13.528 83.7252 13.354 84.0972 13.234C84.4692 13.102 84.8892 13.036 85.3572 13.036C85.9092 13.036 86.4132 13.132 86.8692 13.324C87.3372 13.516 87.7392 13.75 88.0752 14.026L87.3732 14.962C87.0732 14.734 86.7612 14.548 86.4372 14.404C86.1132 14.26 85.7592 14.188 85.3752 14.188C84.8232 14.188 84.4152 14.314 84.1512 14.566C83.8992 14.818 83.7732 15.112 83.7732 15.448C83.7732 15.652 83.8272 15.832 83.9352 15.988C84.0432 16.132 84.1872 16.264 84.3672 16.384C84.5472 16.492 84.7512 16.594 84.9792 16.69C85.2192 16.774 85.4652 16.864 85.7172 16.96C86.0292 17.08 86.3412 17.206 86.6532 17.338C86.9772 17.47 87.2652 17.638 87.5172 17.842C87.7692 18.034 87.9732 18.274 88.1292 18.562C88.2972 18.85 88.3812 19.198 88.3812 19.606C88.3812 19.966 88.3092 20.302 88.1652 20.614C88.0332 20.926 87.8292 21.202 87.5532 21.442C87.2892 21.682 86.9532 21.868 86.5452 22C86.1492 22.144 85.6932 22.216 85.1772 22.216ZM92.4347 22.216C91.9667 22.216 91.5707 22.144 91.2467 22C90.9347 21.856 90.6767 21.658 90.4727 21.406C90.2807 21.154 90.1427 20.848 90.0587 20.488C89.9747 20.128 89.9327 19.732 89.9327 19.3V14.458H88.6367V13.342L90.0047 13.252L90.1847 10.804H91.4267V13.252H93.7847V14.458H91.4267V19.318C91.4267 19.858 91.5227 20.278 91.7147 20.578C91.9187 20.866 92.2727 21.01 92.7767 21.01C92.9327 21.01 93.1007 20.986 93.2807 20.938C93.4607 20.89 93.6227 20.836 93.7667 20.776L94.0547 21.892C93.8147 21.976 93.5507 22.048 93.2627 22.108C92.9867 22.18 92.7107 22.216 92.4347 22.216ZM97.4729 22.216C96.8489 22.216 96.2549 22.102 95.6909 21.874C95.1269 21.646 94.6349 21.358 94.2149 21.01L94.9529 20.02C95.3369 20.332 95.7269 20.584 96.1229 20.776C96.5309 20.968 96.9989 21.064 97.5269 21.064C98.1029 21.064 98.5349 20.932 98.8229 20.668C99.1109 20.404 99.2549 20.08 99.2549 19.696C99.2549 19.468 99.1949 19.27 99.0749 19.102C98.9549 18.934 98.7989 18.79 98.6069 18.67C98.4269 18.538 98.2169 18.424 97.9769 18.328C97.7369 18.232 97.4969 18.136 97.2569 18.04C96.9449 17.932 96.6329 17.812 96.3209 17.68C96.0089 17.536 95.7269 17.368 95.4749 17.176C95.2349 16.972 95.0369 16.738 94.8809 16.474C94.7249 16.21 94.6469 15.892 94.6469 15.52C94.6469 15.172 94.7129 14.848 94.8449 14.548C94.9889 14.236 95.1869 13.972 95.4389 13.756C95.7029 13.528 96.0209 13.354 96.3929 13.234C96.7649 13.102 97.1849 13.036 97.6529 13.036C98.2049 13.036 98.7089 13.132 99.1649 13.324C99.6329 13.516 100.035 13.75 100.371 14.026L99.6689 14.962C99.3689 14.734 99.0569 14.548 98.7329 14.404C98.4089 14.26 98.0549 14.188 97.6709 14.188C97.1189 14.188 96.7109 14.314 96.4469 14.566C96.1949 14.818 96.0689 15.112 96.0689 15.448C96.0689 15.652 96.1229 15.832 96.2309 15.988C96.3389 16.132 96.4829 16.264 96.6629 16.384C96.8429 16.492 97.0469 16.594 97.2749 16.69C97.5149 16.774 97.7609 16.864 98.0129 16.96C98.3249 17.08 98.6369 17.206 98.9489 17.338C99.2729 17.47 99.5609 17.638 99.8129 17.842C100.065 18.034 100.269 18.274 100.425 18.562C100.593 18.85 100.677 19.198 100.677 19.606C100.677 19.966 100.605 20.302 100.461 20.614C100.329 20.926 100.125 21.202 99.8489 21.442C99.5849 21.682 99.2489 21.868 98.8409 22C98.4449 22.144 97.9889 22.216 97.4729 22.216Z" fill="#1B1E29"/>
<path d="M18 36L101.5 36.5" stroke="#930000" stroke-width="2" stroke-linecap="square"/>
<path fill-rule="evenodd" clip-rule="evenodd" d="M60 30L65 40H55L60 30Z" fill="#930000"/>
</svg>

<svg fill="none" height="53" viewBox="0 0 120 53" width="120" xmlns="http://www.w3.org/2000/svg"><rect height="52" rx="7.5" stroke="#c5c5c5" width="119" x=".5" y=".5"/><path d="m22.62 22v-11.808h6.804v1.26h-5.31v3.996h4.5v1.26h-4.5v5.292zm8.3505 0v-8.748h1.476v8.748zm.756-10.548c-.288 0-.534-.09-.738-.27-.192-.18-.288-.408-.288-.684 0-.288.096-.516.288-.684.204-.18.45-.27.738-.27s.528.09.72.27c.204.168.306.396.306.684 0 .276-.102.504-.306.684-.192.18-.432.27-.72.27zm2.0497 10.548 2.862-4.572-2.646-4.176h1.602l1.17 1.926c.132.24.27.486.414.738.144.24.294.48.45.72h.072c.132-.24.264-.48.396-.72.132-.252.264-.498.396-.738l1.062-1.926h1.548l-2.646 4.338 2.844 4.41h-1.602l-1.278-2.034c-.156-.264-.312-.528-.468-.792s-.318-.522-.486-.774h-.072c-.156.252-.306.51-.45.774-.144.252-.288.516-.432.792l-1.188 2.034zm12.1044.216c-.588 0-1.14-.102-1.656-.306-.504-.216-.948-.516-1.332-.9-.372-.396-.666-.876-.882-1.44s-.324-1.206-.324-1.926.108-1.362.324-1.926c.228-.576.522-1.062.882-1.458.372-.396.792-.696 1.26-.9.468-.216.954-.324 1.458-.324.552 0 1.044.096 1.476.288.444.192.81.468 1.098.828.3.36.528.792.684 1.296s.234 1.068.234 1.692c0 .156-.006.312-.018.468 0 .144-.012.27-.036.378h-5.904c.06.936.348 1.68.864 2.232.528.54 1.212.81 2.052.81.42 0 .804-.06 1.152-.18.36-.132.702-.3 1.026-.504l.522.972c-.384.24-.81.45-1.278.63s-1.002.27-1.602.27zm-2.754-5.292h4.68c0-.888-.192-1.56-.576-2.016-.372-.468-.9-.702-1.584-.702-.312 0-.612.06-.9.18-.276.12-.528.3-.756.54-.228.228-.42.51-.576.846-.144.336-.24.72-.288 1.152zm10.7257 5.292c-1.104 0-1.986-.396-2.646-1.188-.648-.792-.972-1.92-.972-3.384 0-.708.102-1.344.306-1.908.216-.576.498-1.062.846-1.458s.75-.702 1.206-.918.936-.324 1.44-.324.942.09 1.314.27.75.426 1.134.738l-.072-1.494v-3.366h1.494v12.816h-1.224l-.126-1.026h-.054c-.348.336-.75.63-1.206.882-.444.24-.924.36-1.44.36zm.324-1.242c.408 0 .792-.096 1.152-.288.36-.204.72-.51 1.08-.918v-4.572c-.372-.336-.732-.57-1.08-.702-.336-.144-.684-.216-1.044-.216-.348 0-.678.084-.99.252-.3.156-.564.384-.792.684-.228.288-.408.636-.54 1.044s-.198.864-.198 1.368c0 1.056.21 1.878.63 2.466s1.014.882 1.782.882zm14.0839 1.242c-.744 0-1.428-.138-2.052-.414s-1.17-.672-1.638-1.188c-.456-.528-.816-1.17-1.08-1.926-.252-.768-.378-1.632-.378-2.592 0-.948.132-1.8.396-2.556s.63-1.398 1.098-1.926 1.02-.93 1.656-1.206c.636-.288 1.332-.432 2.088-.432.72 0 1.35.15 1.89.45.552.288 1.002.624 1.35 1.008l-.81.972c-.312-.336-.666-.606-1.062-.81s-.846-.306-1.35-.306c-.564 0-1.074.114-1.53.342-.456.216-.846.534-1.17.954-.324.408-.576.906-.756 1.494-.168.588-.252 1.248-.252 1.98 0 .744.084 1.416.252 2.016.18.588.426 1.092.738 1.512s.69.744 1.134.972c.456.228.966.342 1.53.342.576 0 1.08-.114 1.512-.342.432-.24.84-.57 1.224-.99l.828.936c-.468.54-.996.96-1.584 1.26s-1.266.45-2.034.45zm8.6772 0c-.54 0-1.056-.102-1.548-.306-.48-.204-.906-.498-1.278-.882-.372-.396-.672-.876-.9-1.44-.216-.576-.324-1.224-.324-1.944 0-.732.108-1.38.324-1.944.228-.576.528-1.062.9-1.458s.798-.696 1.278-.9c.492-.204 1.008-.306 1.548-.306s1.05.102 1.53.306c.492.204.924.504 1.296.9s.666.882.882 1.458c.228.564.342 1.212.342 1.944 0 .72-.114 1.368-.342 1.944-.216.564-.51 1.044-.882 1.44-.372.384-.804.678-1.296.882-.48.204-.99.306-1.53.306zm0-1.224c.372 0 .714-.078 1.026-.234.312-.168.576-.396.792-.684.228-.3.402-.654.522-1.062s.18-.864.18-1.368-.06-.96-.18-1.368c-.12-.42-.294-.78-.522-1.08-.216-.3-.48-.528-.792-.684-.312-.168-.654-.252-1.026-.252s-.714.084-1.026.252c-.312.156-.582.384-.81.684-.216.3-.384.66-.504 1.08-.12.408-.18.864-.18 1.368s.06.96.18 1.368.288.762.504 1.062c.228.288.498.516.81.684.312.156.654.234 1.026.234zm8.2398 1.224c-.624 0-1.218-.114-1.782-.342s-1.056-.516-1.476-.864l.738-.99c.384.312.774.564 1.17.756.408.192.876.288 1.404.288.576 0 1.008-.132 1.296-.396s.432-.588.432-.972c0-.228-.06-.426-.18-.594s-.276-.312-.468-.432c-.18-.132-.39-.246-.63-.342s-.48-.192-.72-.288c-.312-.108-.624-.228-.936-.36-.312-.144-.594-.312-.846-.504-.24-.204-.438-.438-.594-.702s-.234-.582-.234-.954c0-.348.066-.672.198-.972.144-.312.342-.576.594-.792.264-.228.582-.402.954-.522.372-.132.792-.198 1.26-.198.552 0 1.056.096 1.512.288.468.192.87.426 1.206.702l-.702.936c-.3-.228-.612-.414-.936-.558s-.678-.216-1.062-.216c-.552 0-.96.126-1.224.378-.252.252-.378.546-.378.882 0 .204.054.384.162.54.108.144.252.276.432.396.18.108.384.21.612.306.24.084.486.174.738.27.312.12.624.246.936.378.324.132.612.3.864.504.252.192.456.432.612.72.168.288.252.636.252 1.044 0 .36-.072.696-.216 1.008-.132.312-.336.588-.612.828-.264.24-.6.426-1.008.558-.396.144-.852.216-1.368.216zm7.2575 0c-.468 0-.864-.072-1.188-.216-.312-.144-.57-.342-.774-.594-.192-.252-.33-.558-.414-.918s-.126-.756-.126-1.188v-4.842h-1.296v-1.116l1.368-.09.18-2.448h1.242v2.448h2.358v1.206h-2.358v4.86c0 .54.096.96.288 1.26.204.288.558.432 1.062.432.156 0 .324-.024.504-.072s.342-.102.486-.162l.288 1.116c-.24.084-.504.156-.792.216-.276.072-.552.108-.828.108zm5.0382 0c-.624 0-1.218-.114-1.782-.342s-1.056-.516-1.476-.864l.738-.99c.384.312.774.564 1.17.756.408.192.876.288 1.404.288.576 0 1.008-.132 1.296-.396s.432-.588.432-.972c0-.228-.06-.426-.18-.594s-.276-.312-.468-.432c-.18-.132-.39-.246-.63-.342s-.48-.192-.72-.288c-.312-.108-.624-.228-.936-.36-.312-.144-.594-.312-.846-.504-.24-.204-.438-.438-.594-.702s-.234-.582-.234-.954c0-.348.066-.672.198-.972.144-.312.342-.576.594-.792.264-.228.582-.402.954-.522.372-.132.792-.198 1.26-.198.552 0 1.056.096 1.512.288.468.192.8701.426 1.2061.702l-.7021.936c-.3-.228-.612-.414-.936-.558s-.678-.216-1.062-.216c-.552 0-.96.126-1.224.378-.252.252-.378.546-.378.882 0 .204.054.384.162.54.108.144.252.276.432.396.18.108.384.21.612.306.24.084.486.174.738.27.312.12.624.246.936.378.324.132.612.3.864.504.2521.192.4561.432.6121.72.168.288.252.636.252 1.044 0 .36-.072.696-.216 1.008-.132.312-.336.588-.6121.828-.264.24-.6.426-1.008.558-.396.144-.852.216-1.368.216z" fill="#1b1e29"/><path d="m18 36 83.5.5" stroke="#930000" stroke-linecap="square" stroke-width="2"/><path clip-rule="evenodd" d="m60 30 5 10h-10z" fill="#930000" fill-rule="evenodd"/></svg>
